src/Assets/Icons/mic-mute.svg

<svg width="16" height="16" viewBox="0 0 16 16" fill="none" xmlns="http://www.w3.org/2000/svg">
<g clip-path="url(#clip0_264_45000)">
<path d="M13 8.00001C13 8.56401 12.906 9.10701 12.734 9.61301L11.92 8.79901C11.9733 8.53602 12.0001 8.26835 12 8.00001V7.00001C12 6.8674 12.0527 6.74023 12.1464 6.64646C12.2402 6.55269 12.3674 6.50001 12.5 6.50001C12.6326 6.50001 12.7598 6.55269 12.8536 6.64646C12.9473 6.74023 13 6.8674 13 7.00001V8.00001ZM8 12C8.818 12 9.578 11.755 10.212 11.333L10.93 12.052C10.2162 12.5697 9.37751 12.8882 8.5 12.975V15H11.5C11.6326 15 11.7598 15.0527 11.8536 15.1465C11.9473 15.2402 12 15.3674 12 15.5C12 15.6326 11.9473 15.7598 11.8536 15.8536C11.7598 15.9473 11.6326 16 11.5 16H4.5C4.36739 16 4.24021 15.9473 4.14645 15.8536C4.05268 15.7598 4 15.6326 4 15.5C4 15.3674 4.05268 15.2402 4.14645 15.1465C4.24021 15.0527 4.36739 15 4.5 15H7.5V12.975C6.26668 12.8511 5.12337 12.2734 4.29188 11.3542C3.46038 10.4349 2.99998 9.23954 3 8.00001V7.00001C3 6.8674 3.05268 6.74023 3.14645 6.64646C3.24021 6.55269 3.36739 6.50001 3.5 6.50001C3.63261 6.50001 3.75979 6.55269 3.85355 6.64646C3.94732 6.74023 4 6.8674 4 7.00001V8.00001C4 9.06088 4.42143 10.0783 5.17157 10.8284C5.92172 11.5786 6.93913 12 8 12ZM11 3.00001V7.87901L10 6.87901V3.00001C10.0023 2.47827 9.80064 1.97628 9.43803 1.60115C9.07541 1.22601 8.58056 1.00742 8.05904 0.992028C7.53752 0.976632 7.03063 1.16564 6.64652 1.51873C6.2624 1.87183 6.03147 2.36104 6.003 2.88201L5.158 2.03701C5.38694 1.36425 5.8472 0.794569 6.45683 0.429379C7.06647 0.0641881 7.78592 -0.0728099 8.4871 0.0427739C9.18829 0.158358 9.8257 0.519022 10.2859 1.06056C10.746 1.6021 10.9991 2.28937 11 3.00001Z" fill="#E2E8F0"/>
<path d="M9.486 10.607L8.738 9.859C8.43462 9.97944 8.10637 10.0238 7.7819 9.98821C7.45743 9.95261 7.1466 9.83814 6.87655 9.65479C6.6065 9.47143 6.38543 9.22477 6.23264 8.93632C6.07984 8.64787 5.99997 8.32641 6 8V7.122L5 6.122V8C4.99984 8.52531 5.13763 9.04146 5.39957 9.49681C5.66152 9.95216 6.03844 10.3307 6.49263 10.5947C6.94682 10.8586 7.46236 10.9987 7.98767 11.0009C8.51298 11.003 9.02965 10.8672 9.486 10.607ZM1.646 1.354L13.646 13.354L14.354 12.646L2.354 0.645996L1.646 1.354Z" fill="#E2E8F0"/>
</g>
<defs>
<clipPath id="clip0_264_45000">
<rect width="16" height="16" fill="white"/>
</clipPath>
</defs>
</svg>

<?xml version="1.0" encoding="utf-8"?>
<!-- Generator: Adobe Illustrator 26.0.1, SVG Export Plug-In . SVG Version: 6.00 Build 0)  -->
<svg version="1.1" id="Layer_1" xmlns="http://www.w3.org/2000/svg" xmlns:xlink="http://www.w3.org/1999/xlink" x="0px" y="0px"
	 viewBox="0 0 16 16" style="enable-background:new 0 0 16 16;" xml:space="preserve">
<style type="text/css">
	.st0{fill:none;}
	.st1{fill:#0F172A;}
</style>
<rect y="0" class="st0" width="16" height="16"/>
<g>
	<path class="st1" d="M13,8c0,0.6-0.1,1.1-0.3,1.6l-0.8-0.8C12,8.5,12,8.3,12,8V7c0-0.1,0.1-0.3,0.1-0.4c0.1-0.1,0.2-0.1,0.4-0.1
		s0.3,0.1,0.4,0.1C12.9,6.7,13,6.9,13,7V8z M8,12c0.8,0,1.6-0.2,2.2-0.7l0.7,0.7c-0.7,0.5-1.6,0.8-2.4,0.9v2h3
		c0.1,0,0.3,0.1,0.4,0.1c0.1,0.1,0.1,0.2,0.1,0.4s-0.1,0.3-0.1,0.4c-0.1,0.1-0.2,0.1-0.4,0.1h-7c-0.1,0-0.3-0.1-0.4-0.1
		C4.1,15.8,4,15.6,4,15.5s0.1-0.3,0.1-0.4C4.2,15.1,4.4,15,4.5,15h3v-2c-1.2-0.1-2.4-0.7-3.2-1.6C3.5,10.4,3,9.2,3,8V7
		c0-0.1,0.1-0.3,0.1-0.4c0.1-0.1,0.2-0.1,0.4-0.1s0.3,0.1,0.4,0.1C3.9,6.7,4,6.9,4,7v1c0,1.1,0.4,2.1,1.2,2.8C5.9,11.6,6.9,12,8,12z
		 M11,3v4.9l-1-1V3c0-0.5-0.2-1-0.6-1.4C9.1,1.2,8.6,1,8.1,1C7.5,1,7,1.2,6.6,1.5C6.3,1.9,6,2.4,6,2.9L5.2,2
		c0.2-0.7,0.7-1.2,1.3-1.6c0.6-0.4,1.3-0.5,2-0.4c0.7,0.1,1.3,0.5,1.8,1C10.7,1.6,11,2.3,11,3z"/>
	<path class="st1" d="M9.5,10.6L8.7,9.9C8.4,10,8.1,10,7.8,10c-0.3,0-0.6-0.2-0.9-0.3C6.6,9.5,6.4,9.2,6.2,8.9C6.1,8.6,6,8.3,6,8
		V7.1l-1-1V8c0,0.5,0.1,1,0.4,1.5C5.7,10,6,10.3,6.5,10.6C6.9,10.9,7.5,11,8,11C8.5,11,9,10.9,9.5,10.6z M1.6,1.4l12,12l0.7-0.7
		l-12-12L1.6,1.4z"/>
</g>
</svg>
